X:43
T:Trip to Sligo, The
R:jig
Z:id:hn-jig-43
M:6/8
K:Em
E2e BGE|D2d AFD|E2e BAF|GFE e2f|gfe dcB|ABG FED|EFG ABc|1 BGF E2D:|2 BGF E2e||
|:eBe gfe|dAd fed|eBe gfe|faf gfe|faf gfe|dAG FED|EFG ABc|1 BGF E2e:|2 BGF E2D||
<end>
<start>
